X: 219
T:Crested Hens (Harmony)
M:3/4
R:
F:http://blackrosetheband.googlepages.com/ABCTUNES.ABC May 2009
K:Bm
EDA,|:B,3 EDB,|E4 E2|F6-|F3 EDB,|
B,3 EDB,|E4 E2|F6-|1 F3 EDB,:|2 F6||
EG GE EG|GA-A2 GA|BA d=c BA|F2G2A2|
EG GE EG|GA-A2 GA|BA d=c BA|B4 GF|
EG GE EG|GA-A2 GA|BA d=c BA|A2G2F2|
EG GE EG|GA-A2 GA|BA d=c BF|G6||

